X: 22628
T: Laihian Polkka
R: polka
M: 2/4
K: Bminor
|:Bd/f/ Bd/f/|fg/b/ fg/b/|ff/g/ f/e/d/c/|d/e/d/c/ BF|
Bd/f/ Bd/f/|fg/b/ fg/b/|ff/g/ f/e/d/c/|1 BF B2:|2 BF Ba||
|:b>a gf/g/|aA ce|a>g fe/f/|ad f2|
b>a gf/g/|aA ce|a>g f/e/d/c/|1 d2 fa:|2 d2 c2||

